!!!OTL: 355. Mahnung an die Braut.
!!!COM: Seb. Bach
!!!ODT: 1725
!!!ARE: Europa, Mitteleuropa, Deutschland
!!!SCT: B0355
!!!TXL: @@DE
!!!YEM: Copyright 1995, estate of Helmut Schaffrath.
**kern	**text
*ICvox	*
*Ivox	*
*M2/4	*
*k[b-e-a-]	*
*E-:	*
!LO:TX:a:t=Aria di Giovannini.	!
{8e-	Willſt
=1	=1
8e-	du
8g	dein
8b-	Herʒ
8ee-	mir
=2	=2
8ee-	ſchenken,
8dd	.
8r}	.
{8gg	ſo
=3	=3
16ffL	fang'
16ddJ	.
16ccL	es
16b-J	.
8a-	heim-
8a-	-lich
=4	=4
8a-L	an,
8gJ	.
8r}	.
{8b-	daß
=5	=5
8an	un-
8ee-	-ſer
8ee-	Beider
8dd	.
=6	=6
8dd	Denken
8cc}	.
{4ee-	Nie-
=7	=7
32ddL	-mand
16.ffJ	.
32ddL	er-
16.b-J	.
32ccL	-ra-
16.ee-J	.
8an	-then
=8	=8
(4anqq	.
!LO:N:vis=2	!
4.b-)}	kann.
=||	=||
{8b-/	Die
=9	=9
16b-L	Lie-
16gJ	.
8a-	-be
!LO:TUP:a	!
24ffL	muß
24ee-	.
24ddJ	.
!LO:TUP:a	!
24ccL	bei
24b-	.
24a-J	.
=10	=10
8a-	Bei-
8g	-den
8r}	.
{8cc	all-
=11	=11
8bn	-ʒeit
8cc	verſchwiegen
8ff	.
8ee-	.
=12	=12
(8ee-	ſein
8dd)	.
8r}	.
{8ee-	drum
=13	=13
16ddL	ſchließ'
16b-J	.
16a-XL	die
16gJ	.
16a-L	größ-
16cc	.
16ee-J	.
(16ddqq	.
16cc)	-ten
=14	=14
16b-L	Freu-
16gJ	.
16fL	-den
16e-J}	.
{4a-	in
=15	=15
32gL	der-
16.b-J	.
32gL	-nem
16.e-J	.
32fL	Her-
16.a-J	.
8d	-ʒen
=16	=16
(4dqq	.
!LO:TX:a:t=P:2e-:problem	!
!LO:N:vis=2	!
4.e-);}	ein!
==	==
!!!AGN: Liebes - Lied, Liebes - Lust
!!!GTL: Liebeslieder - Liebeslust
!!!ONB: ESAC (Essen Associative Code) Database: BOEHME
!!!AMT: simple duple
!!!AIN: vox
!!!EED: Helmut Schaffrath
!!!EEV: 1.0
!!Angebl. v. Seb. Bach. Hdſchr. v. 1725.
!!@@COMMENT:"Die Königl. Bibl. in Berlin beſitʒt unter vielen Handſchriften von Seb. Bach's Werken auch
!!ʒwei handſchriftliche Notenhefte, die für ſeine ʒweite Frau, Anna Magdalene geb. Wülken (Tochter
!!des weißenfelſer Kammermuſikers) beſtimmt waren. Das eine iſt beʒeichnet: Clavier-Büchlein vor
!!Anna Magdalene Bachin. Anno 1722. Das andere, fein gebundene mit Goldpreſſung und Gold-
!!ſchnitt, trägt auf dem Deckel die goldgepreßte Beʒeichnung: "A. M. B. 1725". Jn dieſem ʒweiten
!!Buche ſteht nur unter Clavierſtücken und Chorälen, die theils von Bach's Hand, theils von ſeiner
!!Frau geſchrieben ſind, auch das vielbeſprochene Liebesliedchen: Willſt du dein Herʒ mir ſchenken",
!!mit der Ueberſchrift: "Aria di Giovannini. Die Melodie dieſes hübſchen, volksthümlichen Strophen-
!!liedes hat ʒur Begleitung einen beʒifferten Baß. [...]"
!!@@END:
!!!URL-scan: https://archive.org/details/BoehmeVtLieder1895/page/n295/mode/2up
!!!ENC: Anna Maria Matuszewska
!!!EEV: 2024/05/07
*-	*-
